X:1
T:Missa "Au travail suis"
T:Missa "Au travail suis" - 4 Benedictus
T:Johannes Ockeghem
T:Ed. Charles Weaver
C:Johannes Ockeghem
%%score [ 1 2 3 4 ]
L:1/8
Q:1/4=150
M:2/2
K:C
V:1 treble nm="Superius" snm="S."
V:2 treble-8 nm="Altus" snm="A."
V:3 bass nm="Tenor" snm="T."
V:4 bass nm="Bassus" snm="B."
V:1
 G8- | G8 | G6 E2 | G4 B4- | B2 A2 A4- | A4 _B4 | A4 c4- | c2 B2 G4 | A4 B4- | B4 d4 | c4 A4- | %11
w: Be-||ne- *|di- *||||||||
 A2 G2 F2 E2 | E8 | F4 E4 | A6 G2 | c4 B4- | B2 A2 A4- | A4 ^G4 | !fermata!A8 | z8 | z8 | z8 | z8 | %23
w: |ctus,|be- ne-|di- *||||ctus|||||
 z8 | z8 | z8 | z8 | z8 | z8 | z8 | z8 | z8 | z8 | z8 | z8 | z8 | z8 | z8 | z8 | z8 | z8 | z8 | %42
w: |||||||||||||||||||
 z8 | z8 | z8 | z8 | z8 |[M:4/2][Q:1/4=250]"^T" G16 | B16 | !fermata!c16 | A16 | A16 | A16 | %53
w: |||||Ho-|san-|na,|ho-|san-|na|
 B12 G4 | G16 | A16 | !fermata!A16 |] %57
w: in ex-|cel-||sis.|
V:2
 z8 | z8 | z8 | z8 | z8 | z8 | z8 | z8 | z8 | z8 | z8 | z8 | z8 | z8 | z8 | z8 | z8 | z8 | z8 | %19
w: |||||||||||||||||||
 f8 | f4 a4- | a4 d4 | e4 g4- | g2 f2 d4 | c4 d4 | B4 c4 | f4 e4 | a6 f2 | g4 a4 | g2 a3 g a2 | %30
w: Qui|ve- *||||||||||
 g2 e4 c2 | d4 c2 f2- | fg a4 f2 | g2 fg a4 | f2 f4 e2 | f8 | z8 | z8 | z8 | z8 | z8 | z8 | z8 | %43
w: |||||nit||||||||
 z8 | z8 | z8 | z8 |[M:4/2] e16 | g16 | !fermata!a16 | f16 | d16- | d8 d8- | d16 | e12 c4 | c16 | %56
w: ||||Ho-|san-|na,|ho-|san-|* na|_|in ex-|cel-|
 !fermata!d16 |] %57
w: sis.|
V:3
 z8 | z8 | z8 | z8 | z8 | z8 | z8 | z8 | z8 | z8 | z8 | z8 | z8 | z8 | z8 | z8 | z8 | z8 | z8 | %19
w: |||||||||||||||||||
 D,8 | E,4 D,4 | F,8 | G,8 | _B,8 | A,4 F,4 | E,4 A,4- | A,4 C4- | C4 B,4- | B,2 A,G, F,4 | C8- | %30
w: Qui-|ve- *||||||||||
 C8 | B,4 A,4 | F,4 A,4 | B,2 C4 F,2 | A,2 B,2 G,4 | F,6 E,D, | C,2 E,2 D,2 F,2 | E,2 A,4 ^G,2 | %38
w: |||||nit _ _|_ in no- mi-|ne Do- *|
 A,4 D,2 E,2- | E,2 D,C, B,,2 E,2- | E,D, B,,2 C,2 A,,2 | D,3 C, B,,A,, A,,2- | A,,2 G,,2 C,3 D, | %43
w: |||||
 E,2 F,2 E,2 A,2- | A,2 F,2 G,2 E,2 | D,2 F,2 E,4 | !fermata!D,8 |[M:4/2] E,16 | D,16 | %49
w: ||* * mi-|ni.|Ho-|san-|
 !fermata!E,16 | F,16 | A,16 | D,16 | G,,16 | C,12 A,,4 | A,,16 | !fermata!D,16 |] %57
w: na,|ho-|san-|na|in|_ ex-|cel-|sis.|
V:4
 E,8- | E,8- | E,8- | E,8 | D,8 | F,4 G,4 | A,8 | E,8 | F,4 E,4 | G,8 | A,8 | D,4 A,4- | A,4 G,4 | %13
w: Be-||||ne-|di- *||||||ctus, be-|* ne-|
 F,4 A,4- | A,4 _B,4 | A,4 G,4 | C8 | B,8 | !fermata!A,8 | z8 | z8 | z8 | z8 | z8 | z8 | z8 | z8 | %27
w: di- *|||||ctus|||||||||
 z8 | z8 | z8 | z8 | z8 | z8 | z8 | z8 | z4 F,4 | E,2 C,2 D,2 A,,2- | A,,2 C,2 B,,4 | %38
w: ||||||||in|no- mi- ne Do-||
 A,,4 B,,2 C,2 | A,,4 G,,4 | z2 G,,2 A,,2 C,2 | B,,2 G,,4 A,,2 | B,,4 A,,3 G,, | C,3 D, E,2 F,2 | %44
w: ||||||
 D,4 E,2 G,2 | F,2 D,4 ^C,2 | !fermata!D,8 |[M:4/2] C,16 | B,,16 | !fermata!A,,16 | D,16 | F,16 | %52
w: |* * mi-|ni.|Ho-|san-|na,|ho-|san-|
 F,16 | G,12 E,4 | E,16- | E,16 | !fermata!D,16 |] %57
w: na|in ex-|cel-||sis.|

